Sweet-Rainbow/icons/kvantum.svg

<?xml version="1.0" encoding="UTF-8" standalone="no"?>
<!-- Generator: Gravit.io -->

<svg
   xmlns:dc="http://purl.org/dc/elements/1.1/"
   xmlns:cc="http://creativecommons.org/ns#"
   xmlns:rdf="http://www.w3.org/1999/02/22-rdf-syntax-ns#"
   xmlns:svg="http://www.w3.org/2000/svg"
   xmlns="http://www.w3.org/2000/svg"
   xmlns:sodipodi="http://sodipodi.sourceforge.net/DTD/sodipodi-0.dtd"
   xmlns:inkscape="http://www.inkscape.org/namespaces/inkscape"
   style="isolation:isolate"
   viewBox="0 0 48 48"
   width="48"
   height="48"
   version="1.1"
   id="svg18"
   sodipodi:docname="kvantum.svg"
   inkscape:version="0.92.4 (5da689c313, 2019-01-14)">
  <metadata
     id="metadata24">
    <rdf:RDF>
      <cc:Work
         rdf:about="">
        <dc:format>image/svg+xml</dc:format>
        <dc:type
           rdf:resource="http://purl.org/dc/dcmitype/StillImage" />
        <dc:title></dc:title>
      </cc:Work>
    </rdf:RDF>
  </metadata>
  <defs
     id="defs22" />
  <sodipodi:namedview
     pagecolor="#ffffff"
     bordercolor="#666666"
     borderopacity="1"
     objecttolerance="10"
     gridtolerance="10"
     guidetolerance="10"
     inkscape:pageopacity="0"
     inkscape:pageshadow="2"
     inkscape:window-width="640"
     inkscape:window-height="480"
     id="namedview20"
     showgrid="false"
     inkscape:zoom="39.153656"
     inkscape:cx="18.994082"
     inkscape:cy="24"
     inkscape:current-layer="svg18" />
  <linearGradient
     id="_lgradient_17"
     x1="-0.014458464"
     y1="0.009839246"
     x2="1.0164566"
     y2="1.072293"
     gradientTransform="matrix(38.04,0,0,36.08,4.8,2.52)"
     gradientUnits="userSpaceOnUse">
    <stop
       offset="0%"
       stop-opacity="1"
       style="stop-color:rgb(249,212,35)"
       id="stop2" />
    <stop
       offset="47.619422866010865%"
       stop-opacity="1"
       style="stop-color:rgb(255,78,80)"
       id="stop4" />
    <stop
       offset="99.1304347826087%"
       stop-opacity="1"
       style="stop-color:rgb(138,35,135)"
       id="stop6" />
  </linearGradient>
  <linearGradient
     id="_lgradient_18"
     x1="0"
     y1="0.5"
     x2="1"
     y2="0.5"
     gradientTransform="matrix(44,0,0,4,2,41)"
     gradientUnits="userSpaceOnUse">
    <stop
       offset="0%"
       stop-opacity="1"
       style="stop-color:rgb(178,254,250)"
       id="stop11" />
    <stop
       offset="98.26086956521739%"
       stop-opacity="1"
       style="stop-color:rgb(14,210,247)"
       id="stop13" />
  </linearGradient>
  <g
     id="g836"
     transform="matrix(1.0909091,0,0,1.0909091,-2.1818184,-1.9200002)">
    <path
       id="path9"
       d="m 17.48,29.68 -3.684,-4.285 c -1.08,-1.256 -2.011,-0.932 -2.078,0.723 L 11.56,30 l 0.28,3.96 q -0.44,0.12 -1.4,0.24 v 0 0 q -0.96,0.12 -1.88,0.12 v 0 0 q -0.92,0 -1.62,-0.14 v 0 0 q -0.7,-0.14 -1.18,-0.5 v 0 0 q -0.48,-0.36 -0.72,-1 v 0 0 Q 4.8,32.04 4.8,31 v 0 -28.12 0 Q 5.24,2.8 6.2,2.66 v 0 0 Q 7.16,2.52 8.04,2.52 v 0 0 q 0.92,0 1.62,0.14 v 0 0 q 0.7,0.14 1.18,0.5 v 0 0 q 0.48,0.36 0.72,1 v 0 0 Q 11.8,4.8 11.8,5.84 v 0 8.36 c 0,1.656 0.825,1.939 1.841,0.632 L 23.12,2.64 v 0 q 2.72,0 3.9,1.02 v 0 0 q 1.18,1.02 1.18,2.42 v 0 0 q 0,1.04 -0.52,1.96 v 0 0 Q 27.16,8.96 26,10.12 v 0 l -8,10 v 0 q 1,1.12 2.1,2.32 v 0 0 q 1.1,1.2 2.16,2.34 v 0 0 q 1.06,1.14 2.04,2.18 v 0 0 q 0.98,1.04 1.7,1.8 v 0 0 q 0,0.88 -0.32,1.56 v 0 0 Q 25.36,31 24.82,31.48 v 0 0 q -0.54,0.48 -1.22,0.72 v 0 0 q -0.68,0.24 -1.44,0.24 v 0 0 q -1.64,0 -2.68,-0.82 v 0 0 q -1.04,-0.82 -2,-1.94 z m 19.6,7.92 v 0 0 q -0.56,0.44 -1.64,0.72 v 0 0 Q 34.36,38.6 33,38.6 v 0 0 q -1.56,0 -2.7,-0.4 v 0 0 q -1.14,-0.4 -1.58,-1.28 v 0 0 q -0.36,-0.68 -0.86,-1.9 v 0 0 Q 27.36,33.8 26.8,32.3 v 0 0 q -0.56,-1.5 -1.16,-3.22 v 0 0 q -0.6,-1.72 -1.14,-3.4 v 0 0 Q 23.96,24 23.52,22.44 v 0 0 Q 23.08,20.88 22.8,19.68 v 0 0 q 0.56,-0.56 1.5,-0.98 v 0 0 q 0.94,-0.42 2.06,-0.42 v 0 0 q 1.4,0 2.3,0.58 v 0 0 q 0.9,0.58 1.34,2.18 v 0 l 1.56,6.12 v 0 q 0.44,1.8 0.84,3.26 v 0 0 q 0.4,1.46 0.6,2.26 v 0 h 0.2 v 0 q 0.76,-2.96 1.6,-6.56 v 0 0 q 0.84,-3.6 1.52,-7.08 v 0 0 Q 37,18.68 37.86,18.48 v 0 0 q 0.86,-0.2 1.66,-0.2 v 0 0 q 1.4,0 2.36,0.6 v 0 0 q 0.96,0.6 0.96,2.08 v 0 0 q 0,0.64 -0.3,1.86 v 0 0 q -0.3,1.22 -0.76,2.76 v 0 0 q -0.46,1.54 -1.08,3.26 v 0 0 q -0.62,1.72 -1.26,3.36 v 0 0 q -0.64,1.64 -1.26,3.06 v 0 0 q -0.62,1.42 -1.1,2.34 z"
       style="fill:url(#_lgradient_17)"
       inkscape:connector-curvature="0" />
    <path
       id="path16"
       d="m 4,41 h 13 c 1.104,0 2,0.896 2,2 v 0 c 0,1.104 -0.896,2 -2,2 H 4 C 2.896,45 2,44.104 2,43 v 0 c 0,-1.104 0.896,-2 2,-2 z m 27,0 h 13 c 1.104,0 2,0.896 2,2 v 0 c 0,1.104 -0.896,2 -2,2 H 31 c -1.104,0 -2,-0.896 -2,-2 v 0 c 0,-1.104 0.896,-2 2,-2 z m -8.93,2 c 0,-1.104 0.896,-2 2,-2 1.104,0 2,0.896 2,2 0,1.104 -0.896,2 -2,2 -1.104,0 -2,-0.896 -2,-2 z"
       style="fill:url(#_lgradient_18);fill-rule:evenodd"
       inkscape:connector-curvature="0" />
  </g>
</svg>

<?xml version="1.0" standalone="no"?><!-- Generator: Gravit.io --><svg xmlns="http://www.w3.org/2000/svg" xmlns:xlink="http://www.w3.org/1999/xlink" style="isolation:isolate" viewBox="0 0 48 48" width="48" height="48"><linearGradient id="_lgradient_17" x1="-0.014458464773922156" y1="0.009839246119734024" x2="1.0164565923220248" y2="1.0722930524759795" gradientTransform="matrix(38.04,0,0,36.08,4.8,2.52)" gradientUnits="userSpaceOnUse"><stop offset="0%" stop-opacity="1" style="stop-color:rgb(249,212,35)"/><stop offset="47.619422866010865%" stop-opacity="1" style="stop-color:rgb(255,78,80)"/><stop offset="99.1304347826087%" stop-opacity="1" style="stop-color:rgb(138,35,135)"/></linearGradient><path d=" M 17.48 29.68 L 13.796 25.395 C 12.716 24.139 11.785 24.463 11.718 26.118 L 11.56 30 L 11.84 33.96 Q 11.4 34.08 10.44 34.2 L 10.44 34.2 L 10.44 34.2 Q 9.48 34.32 8.56 34.32 L 8.56 34.32 L 8.56 34.32 Q 7.64 34.32 6.94 34.18 L 6.94 34.18 L 6.94 34.18 Q 6.24 34.04 5.76 33.68 L 5.76 33.68 L 5.76 33.68 Q 5.28 33.32 5.04 32.68 L 5.04 32.68 L 5.04 32.68 Q 4.8 32.04 4.8 31 L 4.8 31 L 4.8 2.88 L 4.8 2.88 Q 5.24 2.8 6.2 2.66 L 6.2 2.66 L 6.2 2.66 Q 7.16 2.52 8.04 2.52 L 8.04 2.52 L 8.04 2.52 Q 8.96 2.52 9.66 2.66 L 9.66 2.66 L 9.66 2.66 Q 10.36 2.8 10.84 3.16 L 10.84 3.16 L 10.84 3.16 Q 11.32 3.52 11.56 4.16 L 11.56 4.16 L 11.56 4.16 Q 11.8 4.8 11.8 5.84 L 11.8 5.84 L 11.8 14.2 C 11.8 15.856 12.625 16.139 13.641 14.832 L 23.12 2.64 L 23.12 2.64 Q 25.84 2.64 27.02 3.66 L 27.02 3.66 L 27.02 3.66 Q 28.2 4.68 28.2 6.08 L 28.2 6.08 L 28.2 6.08 Q 28.2 7.12 27.68 8.04 L 27.68 8.04 L 27.68 8.04 Q 27.16 8.96 26 10.12 L 26 10.12 L 18 20.12 L 18 20.12 Q 19 21.24 20.1 22.44 L 20.1 22.44 L 20.1 22.44 Q 21.2 23.64 22.26 24.78 L 22.26 24.78 L 22.26 24.78 Q 23.32 25.92 24.3 26.96 L 24.3 26.96 L 24.3 26.96 Q 25.28 28 26 28.76 L 26 28.76 L 26 28.76 Q 26 29.64 25.68 30.32 L 25.68 30.32 L 25.68 30.32 Q 25.36 31 24.82 31.48 L 24.82 31.48 L 24.82 31.48 Q 24.28 31.96 23.6 32.2 L 23.6 32.2 L 23.6 32.2 Q 22.92 32.44 22.16 32.44 L 22.16 32.44 L 22.16 32.44 Q 20.52 32.44 19.48 31.62 L 19.48 31.62 L 19.48 31.62 Q 18.44 30.8 17.48 29.68 L 17.48 29.68 Z  M 37.08 37.6 L 37.08 37.6 L 37.08 37.6 Q 36.52 38.04 35.44 38.32 L 35.44 38.32 L 35.44 38.32 Q 34.36 38.6 33 38.6 L 33 38.6 L 33 38.6 Q 31.44 38.6 30.3 38.2 L 30.3 38.2 L 30.3 38.2 Q 29.16 37.8 28.72 36.92 L 28.72 36.92 L 28.72 36.92 Q 28.36 36.24 27.86 35.02 L 27.86 35.02 L 27.86 35.02 Q 27.36 33.8 26.8 32.3 L 26.8 32.3 L 26.8 32.3 Q 26.24 30.8 25.64 29.08 L 25.64 29.08 L 25.64 29.08 Q 25.04 27.36 24.5 25.68 L 24.5 25.68 L 24.5 25.68 Q 23.96 24 23.52 22.44 L 23.52 22.44 L 23.52 22.44 Q 23.08 20.88 22.8 19.68 L 22.8 19.68 L 22.8 19.68 Q 23.36 19.12 24.3 18.7 L 24.3 18.7 L 24.3 18.7 Q 25.24 18.28 26.36 18.28 L 26.36 18.28 L 26.36 18.28 Q 27.76 18.28 28.66 18.86 L 28.66 18.86 L 28.66 18.86 Q 29.56 19.44 30 21.04 L 30 21.04 L 31.56 27.16 L 31.56 27.16 Q 32 28.96 32.4 30.42 L 32.4 30.42 L 32.4 30.42 Q 32.8 31.88 33 32.68 L 33 32.68 L 33.2 32.68 L 33.2 32.68 Q 33.96 29.72 34.8 26.12 L 34.8 26.12 L 34.8 26.12 Q 35.64 22.52 36.32 19.04 L 36.32 19.04 L 36.32 19.04 Q 37 18.68 37.86 18.48 L 37.86 18.48 L 37.86 18.48 Q 38.72 18.28 39.52 18.28 L 39.52 18.28 L 39.52 18.28 Q 40.92 18.28 41.88 18.88 L 41.88 18.88 L 41.88 18.88 Q 42.84 19.48 42.84 20.96 L 42.84 20.96 L 42.84 20.96 Q 42.84 21.6 42.54 22.82 L 42.54 22.82 L 42.54 22.82 Q 42.24 24.04 41.78 25.58 L 41.78 25.58 L 41.78 25.58 Q 41.32 27.12 40.7 28.84 L 40.7 28.84 L 40.7 28.84 Q 40.08 30.56 39.44 32.2 L 39.44 32.2 L 39.44 32.2 Q 38.8 33.84 38.18 35.26 L 38.18 35.26 L 38.18 35.26 Q 37.56 36.68 37.08 37.6 Z " fill="url(#_lgradient_17)"/><linearGradient id="_lgradient_18" x1="0" y1="0.5" x2="1" y2="0.5" gradientTransform="matrix(44,0,0,4,2,41)" gradientUnits="userSpaceOnUse"><stop offset="0%" stop-opacity="1" style="stop-color:rgb(178,254,250)"/><stop offset="98.26086956521739%" stop-opacity="1" style="stop-color:rgb(14,210,247)"/></linearGradient><path d=" M 4 41 L 17 41 C 18.104 41 19 41.896 19 43 L 19 43 C 19 44.104 18.104 45 17 45 L 4 45 C 2.896 45 2 44.104 2 43 L 2 43 C 2 41.896 2.896 41 4 41 L 4 41 Z  M 31 41 L 44 41 C 45.104 41 46 41.896 46 43 L 46 43 C 46 44.104 45.104 45 44 45 L 31 45 C 29.896 45 29 44.104 29 43 L 29 43 C 29 41.896 29.896 41 31 41 L 31 41 Z  M 22.07 43 C 22.07 41.896 22.966 41 24.07 41 C 25.174 41 26.07 41.896 26.07 43 C 26.07 44.104 25.174 45 24.07 45 C 22.966 45 22.07 44.104 22.07 43 Z " fill-rule="evenodd" fill="url(#_lgradient_18)"/></svg>
